X:1
T:F Major William Billings, 1778
T:Isaac Watts, 1719 (Psalm 133)  668. 668.
T:Sherburne
T:No Copyright.  Transcribed from The Singing Master's Assistant, 1778.
%%score [ 1 2 3 4 ]
L:1/8
M:none
K:F
V:1 treble nm="Treble" snm="Tr."
V:2 treble nm="Counter" snm="C."
V:3 treble-8 nm="Tenor" snm="T."
V:4 bass nm="Bass" snm="B."
V:1
 F4 | A2 G2 AB c2 | c4 c4 | c2 c2 c2 =B2 | c4 A4 | B2 B2 c2 F2 | B2 B>A G4- | G4 A4 | B2 B2 c2 de | %9
w: 1.~How|plea- sant 'tis * to|see Kin-|dred and friends a-|gree, Each|in their pro- per|sta- tion * move;~|* And|each ful- fill their *|
 f4 f4 | f2 fe d2 c2 | c4 c4 | d2 B2 c2 fe | d4 c4 | [Ac]8 |] %15
w: part, With|sym- pa- * thi- zing|heart, In|all the cares of *|life and|love.|
V:2
 [CF]4 | F2 G2 F2 G2 | A4 A4 | A2 G2 A2 G2 | G4 [FA]4 | F2 F2 F2 A2 | G2 G2 [EG]4- | [EG]4 F4 | %8
w: 2.~'Tis|like the oint- ment|shed On|Aa- ron's sac- red|head, Di-|vine- ly rich, di-|vine- ly sweet;~|* The|
 F2 F2 F2 G2 | A4 A4 | A2 A2 G2 G2 | A4 A4 | G2 G2 G2 F2 | F4 [EG]4 | [FA]8 |] %15
w: oil through all the|room Dif-|fused a choice per-|fume, Ran|through his robes, and|blessed his|feet.|
V:3
 F4 | c2 c2 d2 e2 | f4 f4 | f2 e2 f>e d2 | c4 c4 | d2 d2 c2 f2 | e2 d2 c4- | c4 c4 | d2 d2 c2 =B2 | %9
w: 3.~Like|fruit- ful showers of|rain That|wa- ter all * the|plain, De-|scen- ding from the|neigh- boring hills;~|* Such|streams of plea- sure|
 c4 c4 | c2 c2 d2 e2 | f4 f4 | d2 d2 c2 c2 | B2 A2 G4 | F8 |] %15
w: roll Through|eve- ery friend- ly|soul, Where|love, like heaven- ly|dew, * dis-|tills.|
V:4
 F,4 | F,2 E,2 D,2 C,2 | [F,,F,]4 [F,,F,]4 | [F,,F,]2 C,2 [F,,F,]2 [G,,G,]2 | C,4 [F,,F,]4 | %5
 [B,,B,]2 [B,,B,]2 [A,,A,]2 [F,,F,]2 | [G,,G,]2 [G,,G,]2 C,4- | C,4 [F,,F,]4 | %8
 [B,,B,]2 [B,,B,]2 [A,,A,]2 [G,,G,]2 | [F,,F,]4 [F,,F,]4 | [F,,F,]2 [F,,F,]2 [B,,B,]2 [C,C]2 | %11
 [F,,F,]4 [F,,F,]4 | [G,,G,]2 [G,,G,]2 C,2 [F,,F,]2 | B,,4 C,4 | F,,8 |] %15

